X:1
T:St. Luke, LM
T:St. Luke, LM
T:John Frederick Lampe, 1746
T:Public Domain Courtesy of the Cyber Hymnal™
C:John Frederick Lampe, 1746
Z:Public Domain
Z:Courtesy of the Cyber Hymnal™
%%score ( 1 2 ) ( 3 4 )
L:1/8
Q:1/4=107
M:4/4
K:Ab
V:1 treble 
V:2 treble 
V:3 bass 
V:4 bass 
V:1
 [CF]2 | [B,E]2 [B,D]2 [A,C]2 [CA]2 | G2 z B, [C=E]2 [Cc]2 | [Ec]2 [DB]2 [CA]2 [FB]2 | %4
 [EA]2 [DG]2 [CA]2 [Ec]2 | [Ee]2 [Ed]2 [Ec]2 [Ac]2 | [FB]2 [FA]2 [EG]2 [EG]2 x | %7
 [EA]2 [DF]2 [Cc]2 [FB]2 | [FA]2 [=EG]2 F2 |] %9
V:2
 x2 | x8 | C3 F2 x3 | x8 | x8 | x8 | x9 | x8 | x4 F2 |] %9
V:3
 [F,,A,]2 | [G,,G,]2 [G,,E,]2 [A,,E,]2 F,2 | [E,G,]2 (A,F,) [C,G,]2 [A,,A,]2 | %3
 [C,A,]2 [E,G,]2 [F,A,]2 [D,D]2 | [E,C]2 [E,B,]2 [A,,A,]2 A,2 | [G,B,]2 [E,G,]2 A,2 [C,E]2 | %6
 D3 z C [E,B,]2 [D,A,]2 | [C,A,]2 [D,A,]2 [A,,F,]2 [B,,D]2 | [C,C]2 [C,B,]2 [F,A,]2 |] %9
V:4
 x2 | x6 F,2 | x2 D,2 x4 | x8 | x6 A,2 | x4 A,2 x2 | D,2 B,,2 x5 | x8 | x6 |] %9

